packages/icons/raw/imported/SportOverwatch.svg

<svg width="32" height="32" viewBox="0 0 32 32" fill="none" xmlns="http://www.w3.org/2000/svg">
<path d="M9.83958 8.12234C9.62216 8.29259 9.58393 8.60685 9.75418 8.82427C9.92442 9.04169 10.2387 9.07992 10.4561 8.90967L9.83958 8.12234ZM21.5439 8.90967C21.7613 9.07992 22.0756 9.04169 22.2458 8.82427C22.4161 8.60685 22.3778 8.29259 22.1604 8.12234L21.5439 8.90967ZM8.56617 10.9251C8.72208 10.6972 8.66371 10.386 8.43579 10.2301C8.20787 10.0742 7.89672 10.1326 7.74081 10.3605L8.56617 10.9251ZM24.2592 10.3605C24.1033 10.1326 23.7921 10.0742 23.5642 10.2301C23.3363 10.386 23.2779 10.6972 23.4338 10.9251L24.2592 10.3605ZM9.39484 22.383C9.20242 22.5811 9.207 22.8976 9.40507 23.0901C9.60314 23.2825 9.91969 23.2779 10.1121 23.0798L9.39484 22.383ZM14.6953 17.6446L15.0539 17.993L14.6953 17.6446ZM15.7979 11.7926C15.7979 11.5165 15.5741 11.2926 15.2979 11.2926C15.0218 11.2926 14.7979 11.5165 14.7979 11.7926H15.7979ZM22.2336 23.077C22.4244 23.2766 22.7409 23.2836 22.9405 23.0928C23.1401 22.9019 23.1472 22.5854 22.9563 22.3859L22.2336 23.077ZM17.7282 17.6422L17.3668 17.9878H17.3668L17.7282 17.6422ZM17.6372 11.7926C17.6372 11.5165 17.4133 11.2926 17.1372 11.2926C16.8611 11.2926 16.6372 11.5165 16.6372 11.7926H17.6372ZM25 16C25 20.9706 20.9706 25 16 25V26C21.5228 26 26 21.5228 26 16H25ZM16 25C11.0294 25 7 20.9706 7 16H6C6 21.5228 10.4772 26 16 26V25ZM10.4561 8.90967C11.9842 7.71305 13.9082 7 16 7V6C13.6768 6 11.5374 6.79283 9.83958 8.12234L10.4561 8.90967ZM16 7C18.0918 7 20.0158 7.71305 21.5439 8.90967L22.1604 8.12234C20.4626 6.79283 18.3232 6 16 6V7ZM7 16C7 14.1166 7.57797 12.3697 8.56617 10.9251L7.74081 10.3605C6.64246 11.9661 6 13.9088 6 16H7ZM23.4338 10.9251C24.422 12.3697 25 14.1166 25 16H26C26 13.9088 25.3575 11.9661 24.2592 10.3605L23.4338 10.9251ZM10.1121 23.0798L15.0539 17.993L14.3366 17.2962L9.39484 22.383L10.1121 23.0798ZM15.7979 16.1593V11.7926H14.7979V16.1593H15.7979ZM15.0539 17.993C15.531 17.5018 15.7979 16.8441 15.7979 16.1593H14.7979C14.7979 16.5839 14.6324 16.9917 14.3366 17.2962L15.0539 17.993ZM22.9563 22.3859L18.0896 17.2967L17.3668 17.9878L22.2336 23.077L22.9563 22.3859ZM17.6372 16.1691V11.7926H16.6372V16.1691H17.6372ZM18.0896 17.2967C17.7992 16.9931 17.6372 16.5892 17.6372 16.1691H16.6372C16.6372 16.8467 16.8986 17.4981 17.3668 17.9878L18.0896 17.2967Z" fill="black"/>
</svg>

<svg width="32" height="32" fill="none" xmlns="http://www.w3.org/2000/svg"><path d="M9.84 8.122a.5.5 0 1 0 .616.788l-.616-.788Zm11.704.788a.5.5 0 1 0 .616-.788l-.616.788ZM8.566 10.925a.5.5 0 0 0-.825-.565l.825.565Zm15.693-.565a.5.5 0 0 0-.825.565l.825-.565ZM9.395 22.383a.5.5 0 0 0 .717.697l-.717-.697Zm5.3-4.738.359.348-.359-.348Zm1.103-5.852a.5.5 0 1 0-1 0h1Zm6.436 11.284a.5.5 0 0 0 .722-.691l-.722.691Zm-4.506-5.435-.361.346.361-.346Zm-.09-5.85a.5.5 0 0 0-1 0h1ZM25 16a9 9 0 0 1-9 9v1c5.523 0 10-4.477 10-10h-1Zm-9 9a9 9 0 0 1-9-9H6c0 5.523 4.477 10 10 10v-1ZM10.456 8.91A8.96 8.96 0 0 1 16 7V6a9.96 9.96 0 0 0-6.16 2.122l.616.788ZM16 7a8.96 8.96 0 0 1 5.544 1.91l.616-.788A9.959 9.959 0 0 0 16 6v1Zm-9 9c0-1.883.578-3.63 1.566-5.075l-.825-.565A9.956 9.956 0 0 0 6 16h1Zm16.434-5.075A8.956 8.956 0 0 1 25 16h1a9.956 9.956 0 0 0-1.74-5.64l-.826.565ZM10.112 23.08l4.942-5.087-.717-.697-4.942 5.087.717.697Zm5.686-6.92v-4.367h-1v4.366h1Zm-.744 1.833a2.632 2.632 0 0 0 .744-1.834h-1c0 .425-.166.833-.461 1.137l.717.697Zm7.902 4.393-4.866-5.09-.723.692 4.867 5.089.722-.691Zm-5.319-6.217v-4.376h-1v4.376h1Zm.453 1.128a1.631 1.631 0 0 1-.453-1.128h-1c0 .678.262 1.33.73 1.819l.723-.691Z" fill="#000"/></svg>
